cssgg/space-between-v.svg

<svg viewBox="0 0 24 24" xmlns="http://www.w3.org/2000/svg"><g><path d="M5 5v4h14V5h-2v2H7V5H5Z"/><path d="M5 19v-4h14v4h-2v-2H7v2H5Z"/><path d="M7 11h10v2H7v-2Z"/></g></svg>

<svg
  width="24"
  height="24"
  viewBox="0 0 24 24"
  fill="none"
  xmlns="http://www.w3.org/2000/svg"
>
  <path d="M5 5V9H19V5H17V7H7V5H5Z" fill="currentColor" />
  <path d="M5 19V15H19V19H17V17H7V19H5Z" fill="currentColor" />
  <path d="M7 11H17V13H7V11Z" fill="currentColor" />
</svg>
